private/icons/dark/slow.svg

<svg viewBox="0 0 37 17.8" xmlns="http://www.w3.org/2000/svg"><path d="m36.7 14.9a18.85 18.85 0 0 0 -16.6-14.6h-.1c-.5 0-1-.1-1.5-.1a7.57 7.57 0 0 0 -1.5.1h-.1a19 19 0 0 0 -16.7 14.6.61.61 0 0 0 .1.6c.1.2.5.3.5.3h35.3s.4-.1.5-.3a.61.61 0 0 0 .1-.6z" fill="#2485ce"/><path d="m17.1 17c-.1 0-.3 0-.3-.1l-13.4-12.9a.62.62 0 0 1 -.1-.7.52.52 0 0 1 .4-.2c.1 0 .2 0 .2.1l16.2 9.1c.1.1.2.2.2.3a.6.6 0 0 1 -.1.4l-2.8 3.8c0 .1-.1.2-.3.2z" fill="#fff"/><path d="m3.7 3.6 16.2 9.1-2.8 3.8zm0-1a1.23 1.23 0 0 0 -.8.4 1 1 0 0 0 .1 1.3l13.4 12.8a.91.91 0 0 0 .7.3h.1a1 1 0 0 0 .7-.4l2.8-3.8a1.08 1.08 0 0 0 .2-.8 1.16 1.16 0 0 0 -.5-.7l-16.2-8.9a.76.76 0 0 0 -.5-.2z" fill="#2485ce"/></svg>

<svg id="Layer_1" data-name="Layer 1" xmlns="http://www.w3.org/2000/svg" viewBox="0 0 37 17.8"><defs><style>.cls-1{fill:#2485ce;}.cls-2{fill:#fff;}</style></defs><path class="cls-1" d="M36.7,14.9A18.85,18.85,0,0,0,20.1.3H20c-.5,0-1-.1-1.5-.1A7.57,7.57,0,0,0,17,.3h-.1A19,19,0,0,0,.2,14.9a.61.61,0,0,0,.1.6c.1.2.5.3.5.3H36.1s.4-.1.5-.3A.61.61,0,0,0,36.7,14.9Z"/><path class="cls-2" d="M17.1,17c-.1,0-.3,0-.3-.1L3.4,4a.62.62,0,0,1-.1-.7.52.52,0,0,1,.4-.2c.1,0,.2,0,.2.1l16.2,9.1c.1.1.2.2.2.3a.6.6,0,0,1-.1.4l-2.8,3.8C17.4,16.9,17.3,17,17.1,17Z"/><path class="cls-1" d="M3.7,3.6l16.2,9.1-2.8,3.8L3.7,3.6m0-1a1.23,1.23,0,0,0-.8.4A1,1,0,0,0,3,4.3L16.4,17.1a.91.91,0,0,0,.7.3h.1a1,1,0,0,0,.7-.4l2.8-3.8a1.08,1.08,0,0,0,.2-.8,1.16,1.16,0,0,0-.5-.7L4.2,2.8A.76.76,0,0,0,3.7,2.6Z"/></svg>
